src/lib/packages/icons/src/assets/filled/cabinet-filing.svg

<svg xmlns="http://www.w3.org/2000/svg" width="24" height="24" fill="none"><path fill="currentColor" d="M18 3H6C4 3 3 4 3 6v4.95a.3.3 0 0 0 .3.3h17.4a.3.3 0 0 0 .3-.3V6c0-2-1-3-3-3Zm-6 6.25a1.25 1.25 0 1 1 0-2.5 1.25 1.25 0 0 1 0 2.5Zm-9 3.8V18c0 2 1 3 3 3h12c2 0 3-1 3-3v-4.95a.3.3 0 0 0-.3-.3H3.3a.3.3 0 0 0-.3.3Zm9 4.2a1.25 1.25 0 1 1 0-2.5 1.25 1.25 0 0 1 0 2.5Z"/></svg>

<svg width="24" height="24" viewBox="0 0 24 24" fill="none" xmlns="http://www.w3.org/2000/svg">
<path d="M18 3H6C4 3 3 4 3 6V10.95C3 11.116 3.134 11.25 3.3 11.25H20.7C20.866 11.25 21 11.116 21 10.95V6C21 4 20 3 18 3ZM12 9.25C11.31 9.25 10.75 8.69 10.75 8C10.75 7.31 11.31 6.75 12 6.75C12.69 6.75 13.25 7.31 13.25 8C13.25 8.69 12.69 9.25 12 9.25ZM3 13.05V18C3 20 4 21 6 21H18C20 21 21 20 21 18V13.05C21 12.884 20.866 12.75 20.7 12.75H3.3C3.134 12.75 3 12.884 3 13.05ZM12 17.25C11.31 17.25 10.75 16.69 10.75 16C10.75 15.31 11.31 14.75 12 14.75C12.69 14.75 13.25 15.31 13.25 16C13.25 16.69 12.69 17.25 12 17.25Z" fill="currentColor"/>
</svg>
